X:1
T:Title
%%score { ( 1 3 ) | ( 2 4 ) }
L:1/8
M:4/4
K:Bb
V:1 treble nm="Grand Piano"
V:3 treble 
V:2 bass 
V:4 bass 
V:1
 z4 z2[Q:1/4=108] [B,D]>[CE] | [DF]2 [DF]2 [DF]2 [DG]>[DA] | [DG]2 [DF]2 [Fd]2 [Fd]>[Ge] | %3
 d2 c2 F2 c>d |[M:3/4] [Ec]2 [DB]2 [DF]2 |[M:1/4] [B,D]>[CE] |[M:4/4] [DF]2 [DF]2 [DF]2 [DG]>[DA] | %7
 [DG]2 [DF]2 [Fd]2 [Fd]>[F=e] | [Ff]2 [FA]>[FB] [=Ec]2 [Ec]2 |[M:3/4] F6 |[M:1/4] F>F | %11
[M:4/4] e4 z4 | d6[K:bass][K:treble] z2 | d4 z4 | B6 A>B | c2 [GB]2 [FA]2 [EG]2 | %16
 [DB]2 [DF]2 [DF]2 [Dd]>[Dd] | [=Ed]2 [Ec]2 [EG]2 [Ed]2 | c6 F>F | e4 z4 | %20
 d6[K:bass][K:treble] z2 | d4 z4 | [DGB]6 A>B | c2 c2 [G_d]2 [Gd]2 | %24
[M:9/8] [Fd]2 [Fd]- [Fd] [B=e]2- [Be] [Be]2 |[M:4/4] [Bf]2 [Fd]2 [Ec]3 [DB] |[M:3/4] [DB]6 |] %27
V:2
 z4 z2 [B,,F,]>[B,,F,] | [B,,B,]2 [B,,B,]2 [B,,B,]2 [B,,B,]>[B,,B,] | %2
 [B,,B,]2 [B,,B,]2 [B,,B,]2 [B,,B,]>[B,,B,] | [F,A,F]2 [F,A,E]2 [F,A,E]2 [F,A,E]>[F,A,F] | %4
[M:3/4] [B,,B,]2 [B,,B,]2 [B,,B,]2 |[M:1/4] [B,,F,]>[B,,F,] | %6
[M:4/4] [B,,B,]2 [B,,B,]2 [B,,B,]2 [B,,B,]>[B,,B,] | [B,,B,]2 [B,,B,]2 [B,,B,]2 [=B,,_A,]>[B,,A,] | %8
 [C,A,]2 [C,C]>[C,C] [C,G,]2 [C,B,]2 |[M:3/4] [F,A,]6 |[M:1/4] F,>F, |[M:4/4] F4[K:treble] z4 | %12
 [B,F]6 [B,F]>[B,F] | A,4 z4 | [G,DG]6 [G,B,D]>[K:bass][G,B,D] | [E,G,E]2 [E,G,]2 [E,A,]2 [E,B,]2 | %16
 [B,,B,]2 [B,,B,]2 [B,,B,]2 [G,B,]>[G,B,] | [C,B,]2 [C,B,]2 [C,B,]2 [C,B,]2 | [F,A,F]6 F,>F, | %19
 F4[K:treble] z4 | [B,F]6 [B,F]>[B,F] | A,4 z4 | G,2 D,2 G,,2 [G,B,D]>[G,B,D] | %23
 [E,G,E]2 [E,G,E]2 [=E,B,]2 [E,B,]2 |[M:9/8] [F,B,]2 [F,B,]- [F,B,] [^F,_D]2- [F,D] [F,D]2 | %25
[M:4/4] [F,D]2 [F,B,]2 [F,A,]3 [B,,B,] |[M:3/4] [B,,B,]6 |] %27
V:3
 x8 | x8 | x8 | x8 |[M:3/4] x6 |[M:1/4] x2 |[M:4/4] x8 | x8 | x8 |[M:3/4] x6 |[M:1/4] x2 | %11
[M:4/4] z2 B,2 c2 f2 | z2[K:bass] F,2 B,,2[K:treble] B>c | ^F2 G2 A2 [Fd]2 | x8 | x8 | x8 | x8 | %18
 x8 | z2 B,2 c2 f2 | z2[K:bass] F,2 B,,2[K:treble] B>c | ^F2 G2 [DA]2 [DFd]2 | x8 | x8 | %24
[M:9/8] x9 |[M:4/4] x8 |[M:3/4] x6 |] %27
V:4
 x8 | x8 | x8 | x8 |[M:3/4] x6 |[M:1/4] x2 |[M:4/4] x8 | x8 | x8 |[M:3/4] x6 |[M:1/4] x2 | %11
[M:4/4] [F,A,]2 G,2[K:treble] [A,CF]2 [F,A,F]2 | x8 | D,2 =E,2 [^F,D]2 [D,D]2 | x15/2[K:bass] x/ | %15
 x8 | x8 | x8 | x8 | [F,A,]2 G,2[K:treble] [A,CF]2 [F,A,F]2 | x8 | D,2 E,2 ^F,2 D,2 | x8 | x8 | %24
[M:9/8] x9 |[M:4/4] x8 |[M:3/4] x6 |] %27

